icons/svg/wordpress.svg

﻿<?xml version="1.0" encoding="utf-8"?>
<!DOCTYPE svg PUBLIC "-//W3C//DTD SVG 1.1//EN" "http://www.w3.org/Graphics/SVG/1.1/DTD/svg11.dtd">
<svg xmlns="http://www.w3.org/2000/svg" xmlns:xlink="http://www.w3.org/1999/xlink" version="1.1" baseProfile="full" width="24" height="24" viewBox="0 0 24.00 24.00" enable-background="new 0 0 24.00 24.00" xml:space="preserve">
	<path fill="#000000" fill-opacity="1" fill-rule="evenodd" stroke-width="0.2" stroke-linejoin="round" d="M 12.2022,15.49L 9.64668,21.7206C 10.4,21.9024 11.1889,22 12,22C 12.84,22 13.6556,21.8958 14.4356,21.7029M 20.6067,7.05541C 20.7956,7.95564 20.7556,9.04656 20.3867,10.2461C 19.42,13.3703 17.0244,18.9889 16.0978,21.1286C 19.5778,19.5809 22,16.1197 22,12.0998C 22,10.2572 21.4911,8.53213 20.6067,7.05541 Z M 4.30667,8.64078C 4.30667,8.64078 3.81999,8.02217 3.30667,8.02217L 2.78223,8.02217C 2.27778,9.13082 2.00001,10.6186 2.00001,11.9845C 2.00001,16.0887 4.52222,19.6097 8.11779,21.1109M 3.12889,7.13525C 4.79778,4.03104 8.14223,1.99999 12,1.99999C 14.4978,1.99999 16.7778,3.06206 18.5311,4.56095C 18.0311,4.4634 17.4845,4.57205 16.9333,4.88691C 15.6445,5.62526 15.2222,7.71174 16.8933,8.76052C 17.9378,9.41018 18.3089,11.0399 18.2733,12.0355C 18.24,13.031 15.8489,17.6098 15.8489,17.6098L 13.52,9.6319C 13.52,9.6319 13.44,9.07095 13.44,8.90909C 13.44,8.70731 13.5067,8.45675 13.6333,8.31484C 13.72,8.21949 13.8511,8.02217 14.0089,8.02217L 15.1111,8.02217L 15.1111,7.13525L 9.11112,7.13525L 9.11112,8.02217L 9.29778,8.02217C 9.49333,8.02217 9.68666,8.28602 9.87113,8.47448C 10.0911,8.70065 10.3667,9.54987 10.7,10.4302L 11.5733,13.2971L 9.69334,17.6341L 7.62888,8.96894C 7.62888,8.96894 7.69111,8.37471 7.81557,8.27492C 7.89557,8.20398 8.02222,8.02217 8.16667,8.02217L 8.22223,8.02217L 8.22223,7.13525L 3.12889,7.13525 Z "/>
</svg>

<svg xmlns="http://www.w3.org/2000/svg" version="1.1" baseProfile="full" width="24" height="24" viewBox="0 0 24.00 24.00" xml:space="preserve"><path fill="#000" fill-opacity="1" fill-rule="evenodd" stroke-width=".2" stroke-linejoin="round" d="M12.202 15.49l-2.555 6.23c.753.182 1.542.28 2.353.28.84 0 1.656-.104 2.436-.297m6.17-14.648c.19.9.15 1.992-.22 3.19-.966 3.125-3.362 8.744-4.288 10.884C19.578 19.58 22 16.12 22 12.1c0-1.843-.51-3.568-1.393-5.045zM4.307 8.64s-.486-.618-1-.618h-.524C2.278 9.132 2 10.62 2 11.985c0 4.104 2.522 7.625 6.118 9.126M3.128 7.136C4.8 4.03 8.143 2 12 2c2.498 0 4.778 1.062 6.53 2.56-.5-.097-1.046.012-1.597.327-1.288.738-1.71 2.825-.04 3.874 1.045.65 1.416 2.28 1.38 3.276-.033.995-2.424 5.574-2.424 5.574l-2.33-7.978s-.08-.56-.08-.723c0-.203.067-.453.193-.595.087-.096.218-.293.376-.293h1.1v-.887h-6v.887H9.3c.195 0 .39.264.573.452.22.227.497 1.076.83 1.956l.873 2.867-1.88 4.337L7.63 8.97s.06-.595.186-.695c.08-.07.206-.253.35-.253h.056v-.887H3.13z"/></svg>
